X:1
T:English Suite No.2
T:English Suite No.2 
T:Sarabande (Harpsichord) 
T:J.S. Bach
C:J.S. Bach
%%score { ( 1 2 5 ) | ( 3 4 ) }
L:1/8
Q:1/4=50
M:3/4
K:C
V:1 treble nm="Harpsichord" snm="Hch."
V:2 treble 
V:5 treble 
V:3 bass 
V:4 bass 
V:1
"^Sarabande [c.50]" [Ac]2 [Ec][DB][CEA][B,D^G] | [CA]2 [CA]4 | %2
 !arpeggio![EAce]2 [ce][Bd][Ac][^GB] | [^GB]2 c>B [EA]2 | cAFEFA | dGFEFd | edd/4e/4f/edc | %7
 [Bg]2 [Bg]4 | _BABgeB | AGAa(3(f/4_e/4f/4e/)d | (b/(3c'/4b/4a/4b/c'/)fedc | [Gc]2 [Gc]4 :: %12
 [CEG]2 [EG][DF][CE][B,D] | [CE]2 [G,CE]4 | ^DAG^FG/B/e | ^d^f/e/e<[Bf] B2 | gecB^Ag | ^fcBA^G=f | %18
 e[ac'] [gb][^fa][eg][^df] | [^d^f][eg] f e3 | ga g4 | gf [^cg]4 | ga g4 | fe [Bf]4 | %24
 edd/4e/4f/eag | g/4a/4_b/[ea][d^g][ca][=Bf][ce] | (3e/4^d/4e/4d/e =dcBA | [CEA]2 [CEA]4 :| %28
V:2
 E2 F2 x x | x6 | x2 F2 E2 | x2 (^G/(3A/4G/4A/4-A) x2 | x6 | x6 | [Gc]2 c2 A2 | x6 | x6 | x6 | %10
 z2 [Gc]2 [F-B]2 | FD E4 :: x2 C2 x2 | x6 | [A,^D]2 [B,_E]2 E2 | ^F2 x4 | x6 | x6 | x2 e2 B2 | %19
 B2 [GB]4 | x2 x fed | ^c2 x4 | x2 x fed | B2 x4 | c4- cc | x6 | A2 [EA]2 [D^G]2 | x6 :| %28
V:3
 A,2 D,2 E,2 | A,2 A,4 | !arpeggio![C,E,A,]2 [D,A,]2 E,2 | x2 x2 CB, | A,2 A,,2 z2 | B,2 B,,2 z2 | %6
 x2 C2 FE | D2 D4 | E,4 z2 | F,4 ^F,2 | z2 G,2 G,,2 | C,2 C,,4 :: C,E, G,2 [G,,G,]2 | %13
 [C,G,]2 C,B,,A,,G,, | ^F,,2 E,,2 [E,B,]2 | B,^C ^D2 z2 | E,2 E2 z E, | ^D,2 ^D2 z =D, | %18
 C,2 G,,2 B,,2 | E,,2 G,,2 B,,2 | E,2 =F,2 G,2 | x[I:staff -1] _BAGFE |[I:staff +1] D2 z2 z2 | %23
 x[I:staff -1] AGFED |[I:staff +1] CB,A,G,F,E, | D,C,B,,A,,^G,,A,, | ^F,,2 E,,2 C,2 | %27
 A,,C,/E,/ A,4 :| %28
V:4
 x6 | F,2 E,D,C,B,, | x6 | A,,2 C,2 E,2 | x6 | x6 | CB,A,G, F,2 | F,E,G,F,E,D, | x6 | x6 | x6 | %11
 x6 :: x6 | x6 | x6 | B,,2 B,A,G,^F, | x6 | x6 | x6 | x6 | x6 | A,2 z2 z2 | D,2 E,2 F,2 | %23
 G,2 z2 z2 | x6 | x6 | x6 | x6 :| %28
V:5
 x6 | x6 | x6 |[I:staff +1] E3 D[I:staff -1] x2 | x6 | x6 | x6 | x6 | x6 | x6 | x6 | x6 :: x6 | %13
 x6 | x6 | x6 | x6 | x6 | x6 | x6 | x6 | x6 | x6 | x6 | x6 | f x x4 | x6 | x6 :| %28

